packages/ffe-icons/icons/open/300/md/trail_length_short.svg

<svg xmlns="http://www.w3.org/2000/svg" height="24" viewBox="0 -960 960 960" width="24"><path d="M600-290.001q-71.461 0-123.846-45.5-52.384-45.5-63.692-114.5H200q-12.75 0-21.374-8.628-8.625-8.629-8.625-21.384 0-12.756 8.625-21.371 8.624-8.615 21.374-8.615h212.462q4.231-27.616 16.962-53.963 12.731-26.346 35.578-46.039H280q-12.75 0-21.374-8.628-8.625-8.629-8.625-21.384 0-12.756 8.625-21.371 8.624-8.615 21.374-8.615h320q78.85 0 134.424 55.558 55.575 55.558 55.575 134.384t-55.575 134.441Q678.85-290.001 600-290.001Zm0-59.998q53.846 0 91.924-38.077 38.077-38.078 38.077-91.924 0-53.846-38.077-91.924-38.078-38.077-91.924-38.077-53.846 0-91.924 38.077-38.077 38.078-38.077 91.924 0 53.846 38.077 91.924 38.078 38.077 91.924 38.077Zm-280 59.998q-12.75 0-21.374-8.628-8.625-8.629-8.625-21.384 0-12.756 8.625-21.371 8.624-8.615 21.374-8.615h40q12.75 0 21.374 8.628 8.625 8.629 8.625 21.384 0 12.756-8.625 21.371-8.624 8.615-21.374 8.615h-40ZM600-480Z"/></svg>

<svg xmlns="http://www.w3.org/2000/svg" height="24" viewBox="0 -960 960 960" width="24"><path d="M600-290q-71.46 0-123.85-45.5Q423.77-381 412.46-450H200q-12.75 0-21.37-8.63-8.63-8.63-8.63-21.38 0-12.76 8.63-21.37Q187.25-510 200-510h212.46q4.23-27.61 16.96-53.96Q442.16-590.31 465-610H280q-12.75 0-21.37-8.63-8.63-8.63-8.63-21.38 0-12.76 8.63-21.37Q267.25-670 280-670h320q78.85 0 134.42 55.56Q790-558.88 790-480.06q0 78.83-55.58 134.44Q678.85-290 600-290Zm0-60q53.85 0 91.92-38.08Q730-426.15 730-480t-38.08-91.92Q653.85-610 600-610t-91.92 38.08Q470-533.85 470-480t38.08 91.92Q546.15-350 600-350Zm-280 60q-12.75 0-21.37-8.63-8.63-8.63-8.63-21.38 0-12.76 8.63-21.37Q307.25-350 320-350h40q12.75 0 21.37 8.63 8.63 8.63 8.63 21.38 0 12.76-8.63 21.37Q372.75-290 360-290h-40Zm280-190Z"/></svg>
